X:197
T: MORGENROTH! MORGENROTH! LEUCHTEST MIR ZU FRUEHEM TOD
N: Z0196
O: Europa, Mitteleuropa, Deutschland
R: Soldaten -, Jaeger - Lied; Phrasen geaendert (2.7.89)
M: 3/4
L: 1/16
K: G
D2B2 | B4A2z2D2c2 | c4B2z2
G2B2 | d6B2c2A2 | A4G4z4 |
G3BB2B2B2B2d3cA4z4
A3cc2c2c2c2e3dB4z2GB
d6B2c2A2 | A4G4z4 |
G3BB2B2B2B2d3cA4z4
A3cc2c2c2c2e3dB4z2GB
d6B2c2A2 | A4G4

@@@ Tune index: 9955
